src/lib/images/icons/instagram.svg

<svg viewBox="0 0 32 32" fill="none" xmlns="http://www.w3.org/2000/svg">
<path d="M15.9628 7.75708C13.787 7.75708 11.7003 8.62143 10.1617 10.16C8.62314 11.6985 7.75879 13.7853 7.75879 15.9611C7.75879 18.137 8.62314 20.2237 10.1617 21.7622C11.7003 23.3008 13.787 24.1652 15.9628 24.1652C18.1387 24.1652 20.2254 23.3008 21.764 21.7622C23.3025 20.2237 24.1669 18.137 24.1669 15.9611C24.1669 13.7853 23.3025 11.6985 21.764 10.16C20.2254 8.62143 18.1387 7.75708 15.9628 7.75708V7.75708ZM15.9628 21.2891C14.5493 21.2891 13.1936 20.7276 12.1941 19.7281C11.1946 18.7285 10.633 17.3729 10.633 15.9593C10.633 14.5458 11.1946 13.1901 12.1941 12.1906C13.1936 11.1911 14.5493 10.6296 15.9628 10.6296C17.3764 10.6296 18.732 11.1911 19.7316 12.1906C20.7311 13.1901 21.2926 14.5458 21.2926 15.9593C21.2926 17.3729 20.7311 18.7285 19.7316 19.7281C18.732 20.7276 17.3764 21.2891 15.9628 21.2891V21.2891Z" fill="#fff"/>
<path d="M24.4907 9.36796C25.5471 9.36796 26.4034 8.51165 26.4034 7.45534C26.4034 6.39903 25.5471 5.54272 24.4907 5.54272C23.4344 5.54272 22.5781 6.39903 22.5781 7.45534C22.5781 8.51165 23.4344 9.36796 24.4907 9.36796Z" fill="#fff"/>
<path d="M31.104 5.51076C30.6933 4.45009 30.0656 3.48686 29.2612 2.68274C28.4568 1.87862 27.4933 1.25131 26.4325 0.840985C25.1911 0.374996 23.8797 0.123027 22.554 0.0958082C20.8454 0.0212906 20.3043 0 15.9716 0C11.6389 0 11.0836 -1.78457e-07 9.38922 0.0958082C8.06456 0.121635 6.75406 0.373655 5.51431 0.840985C4.4532 1.25083 3.48949 1.87797 2.685 2.68215C1.88051 3.48634 1.25301 4.44981 0.842759 5.51076C0.376677 6.75203 0.125286 8.06358 0.0993568 9.38922C0.023065 11.096 0 11.6372 0 15.9716C0 20.3043 -1.3219e-08 20.8561 0.0993568 22.554C0.12597 23.8811 0.376136 25.1905 0.842759 26.4342C1.25416 27.4948 1.88227 28.4579 2.68696 29.262C3.49164 30.066 4.4552 30.6934 5.51608 31.104C6.75349 31.5887 8.06453 31.8587 9.39277 31.9024C11.1014 31.9769 11.6425 32 15.9752 32C20.3078 32 20.8632 32 22.5576 31.9024C23.8831 31.8755 25.1945 31.6241 26.436 31.159C27.4966 30.7477 28.4597 30.1199 29.2641 29.3155C30.0684 28.5112 30.6963 27.548 31.1076 26.4875C31.5742 25.2455 31.8244 23.9361 31.851 22.609C31.9273 20.9022 31.9503 20.3611 31.9503 16.0266C31.9503 11.6922 31.9503 11.1422 31.851 9.44422C31.8303 8.09984 31.5776 6.76913 31.104 5.51076V5.51076ZM28.943 22.4227C28.9316 23.4452 28.7449 24.4582 28.3912 25.4176C28.1248 26.1076 27.7169 26.7341 27.1937 27.2569C26.6706 27.7797 26.0438 28.1873 25.3537 28.4533C24.4049 28.8054 23.4027 28.992 22.3908 29.0051C20.7053 29.0832 20.2298 29.1027 15.9077 29.1027C11.5822 29.1027 11.1404 29.1027 9.42293 29.0051C8.41149 28.9927 7.40976 28.8061 6.46174 28.4533C5.76924 28.1889 5.13995 27.7821 4.61458 27.2592C4.08921 26.7363 3.67946 26.1089 3.41184 25.4176C3.06311 24.4685 2.87658 23.4674 2.86006 22.4564C2.78377 20.7709 2.76602 20.2954 2.76602 15.9734C2.76602 11.6496 2.76602 11.2078 2.86006 9.48858C2.87153 8.46666 3.05816 7.45428 3.41184 6.49545C3.95298 5.09559 5.06188 3.99379 6.46174 3.45797C7.41023 3.10692 8.41167 2.92032 9.42293 2.90619C11.1102 2.8299 11.5839 2.8086 15.9077 2.8086C20.2315 2.8086 20.6751 2.80861 22.3908 2.90619C23.4028 2.91836 24.4052 3.10503 25.3537 3.45797C26.0438 3.72459 26.6705 4.13254 27.1936 4.65563C27.7167 5.17872 28.1246 5.80541 28.3912 6.49545C28.7399 7.44458 28.9265 8.44562 28.943 9.45664C29.0193 11.1439 29.0388 11.6177 29.0388 15.9415C29.0388 20.2635 29.0388 20.7283 28.9625 22.4245H28.943V22.4227Z" fill="#fff"/>
</svg>

<svg viewBox="0 0 32 32" fill="none" xmlns="http://www.w3.org/2000/svg"><path d="M15.963 7.757a8.204 8.204 0 1 0 0 16.408 8.204 8.204 0 0 0 0-16.408zm0 13.532a5.33 5.33 0 1 1 0-10.66 5.33 5.33 0 0 1 0 10.66zM24.49 9.368a1.913 1.913 0 1 0 0-3.825 1.913 1.913 0 0 0 0 3.825z" fill="#fff"/><path d="M31.104 5.51A8.17 8.17 0 0 0 26.433.842a11.72 11.72 0 0 0-3.879-.745C20.845.02 20.304 0 15.972 0c-4.333 0-4.888 0-6.583.096A11.628 11.628 0 0 0 5.514.84a8.161 8.161 0 0 0-4.671 4.67 11.683 11.683 0 0 0-.744 3.878C.023 11.096 0 11.637 0 15.972c0 4.332 0 4.884.1 6.582.026 1.327.276 2.637.743 3.88a8.18 8.18 0 0 0 4.673 4.67c1.237.485 2.549.755 3.877.798 1.708.075 2.25.098 6.582.098 4.333 0 4.888 0 6.583-.098a11.734 11.734 0 0 0 3.878-.743 8.184 8.184 0 0 0 4.672-4.671c.466-1.242.716-2.552.743-3.879.076-1.707.1-2.248.1-6.582 0-4.335 0-4.885-.1-6.583a11.677 11.677 0 0 0-.747-3.933zm-2.161 16.913a8.947 8.947 0 0 1-.552 2.995 5.297 5.297 0 0 1-3.037 3.035 8.845 8.845 0 0 1-2.963.552c-1.686.078-2.161.098-6.483.098-4.326 0-4.768 0-6.485-.098a8.8 8.8 0 0 1-2.961-.552 5.297 5.297 0 0 1-3.05-3.035 9.013 9.013 0 0 1-.552-2.962c-.076-1.685-.094-2.16-.094-6.483 0-4.323 0-4.765.094-6.484a8.939 8.939 0 0 1 .552-2.994 5.298 5.298 0 0 1 3.05-3.037 8.889 8.889 0 0 1 2.96-.552c1.688-.076 2.162-.097 6.486-.097s4.767 0 6.483.097a8.8 8.8 0 0 1 2.963.552 5.307 5.307 0 0 1 3.037 3.037c.349.95.536 1.95.552 2.962.076 1.687.096 2.16.096 6.484 0 4.322 0 4.787-.077 6.483h-.019v-.001z" fill="#fff"/></svg>
